X: 6
T: Moth In The Lantern, The
C: Arbo Doughty
Z: chansherly212
S: https://thesession.org/tunes/213#setting46279
R: jig
M: 6/8
L: 1/8
K: Amin
M: 7/8
|:EAc ecec|EAc dcde|EAc ecec|dcd efde|
EAc ecec|EAc dcdc|edc defg|ecB A2 A2:|
|:EAc BABA|cBc dede|EAc BABA|cBA _BAGA|
EAc BABA|cBc dBcd|edc defg|ecB A2 A2:|
|:ecA cAcA|dBG Bcdf|ecA cAcA|def defg|
ecA cAcA|dBG Bcdf|edc defg|ecB A2 A2:|

%-------------------- TUNE SEPARATOR --------------------%

